X:180
T:Martin Wynne's #3
R:reel
S:Dervish - Midsummer's Night Track 1
Z:Transcribed by Dave Marshall
M:C|
K:G
|: dged BdAd | BGAG EA(3AAA | ~B3d cdeg | fgaf gfec |
dged BdAd | BGAG EA(3AAA | ~B3d cdeg |1 fd (3cBA G2Bc :|2 fgaf g2ef
|: ~g2af gfec | dged ~B3c | d~g3 gfec | dega bgaf |
gbaf gfec | dBed ~B3c | d~g3 gfeg |1 fgaf g2ef :|2 fgaf gfec |
